X: 27257
T: Miss Stephanie Marie MacLean
R: reel
M: 4/4
K: Dmajor
A,|D2DE FA,CE|FDD2 FAdf|gfed fdAF|GFED CEAF|
D2DE FA,CE|FDD2 FAdf|gfed fdAF|GEAF D2D:|
e|d2df abag|fdd2 Adfd|e2eg bagf|gee2 Bege|
d2df abag|fdd2 Adfa|gfed fdAF|GEAF D2D:|

